home/.icons/Gruvbox-Plus-Dark/apps/16/origin.svg

<svg width="16" height="16" version="1.1" xmlns="http://www.w3.org/2000/svg">
  <defs>
    <style type="text/css" id="current-color-scheme">.ColorScheme-Text { color:#ebdbb2; } .ColorScheme-Highlight { color:#458588; }</style>
  </defs>
  <path class="ColorScheme-Text" fill="currentColor" d="m7.91 1.001c-0.091-7e-3 -0.198 0.015-0.315 0.078-3.161 1.705-5.007 4.785-4.979 6.838 0.04 2.986 2.332 5.431 5.749 5.348-0.157 0.796-0.629 1.06-0.559 1.438 0.027 0.15 0.246 0.407 0.543 0.245 3.034-1.652 4.974-4.603 5.033-6.728 0.082-2.904-2.127-5.658-5.764-5.473 0.087-0.402 0.289-0.758 0.541-1.175 0.158-0.259 0.024-0.548-0.249-0.571zm0.09 4.845c1.19 0 2.154 0.965 2.154 2.154 0 1.19-0.964 2.154-2.154 2.154-1.189 0-2.154-0.964-2.154-2.154 0-1.189 0.965-2.154 2.154-2.154z"/>
</svg>

<svg xmlns="http://www.w3.org/2000/svg" style="isolation:isolate" width="16" height="16" viewBox="0 0 16 16">
 <defs>
  <style id="current-color-scheme" type="text/css">
   .ColorScheme-Text { color:#ebdbb2; } .ColorScheme-Highlight { color:#458588; }
  </style>
  <linearGradient id="arrongin" x1="0%" x2="0%" y1="0%" y2="100%">
   <stop offset="0%" style="stop-color:#d79921; stop-opacity:1"/>
   <stop offset="100%" style="stop-color:#b57614; stop-opacity:1"/>
  </linearGradient>
  <linearGradient id="aurora" x1="0%" x2="0%" y1="0%" y2="100%">
   <stop offset="0%" style="stop-color:#83a598; stop-opacity:1"/>
   <stop offset="100%" style="stop-color:#b16286; stop-opacity:1"/>
  </linearGradient>
  <linearGradient id="fitdance" x1="0%" x2="0%" y1="0%" y2="100%">
   <stop offset="0%" style="stop-color:#8ec07c; stop-opacity:1"/>
   <stop offset="100%" style="stop-color:#458588; stop-opacity:1"/>
  </linearGradient>
  <linearGradient id="oomox" x1="0%" x2="0%" y1="0%" y2="100%">
   <stop offset="0%" style="stop-color:#458588; stop-opacity:1"/>
   <stop offset="100%" style="stop-color:#928374; stop-opacity:1"/>
  </linearGradient>
  <linearGradient id="rainblue" x1="0%" x2="0%" y1="0%" y2="100%">
   <stop offset="0%" style="stop-color:#b8bb26; stop-opacity:1"/>
   <stop offset="100%" style="stop-color:#076678; stop-opacity:1"/>
  </linearGradient>
  <linearGradient id="sunrise" x1="0%" x2="0%" y1="0%" y2="100%">
   <stop offset="0%" style="stop-color: #fe8019; stop-opacity:1"/>
   <stop offset="100%" style="stop-color: #fabd2f; stop-opacity:1"/>
  </linearGradient>
  <linearGradient id="telinkrin" x1="0%" x2="0%" y1="0%" y2="100%">
   <stop offset="0%" style="stop-color: #83a598; stop-opacity:1"/>
   <stop offset="100%" style="stop-color: #83a598; stop-opacity:1"/>
  </linearGradient>
  <linearGradient id="60spsycho" x1="0%" x2="0%" y1="0%" y2="100%">
   <stop offset="0%" style="stop-color: #fb4934; stop-opacity:1"/>
   <stop offset="25%" style="stop-color: #fabd2f; stop-opacity:1"/>
   <stop offset="50%" style="stop-color: #fe8019; stop-opacity:1"/>
   <stop offset="100%" style="stop-color: #689d6a; stop-opacity:1"/>
  </linearGradient>
  <linearGradient id="90ssummer" x1="0%" x2="0%" y1="0%" y2="100%">
   <stop offset="0%" style="stop-color: #b16286; stop-opacity:1"/>
   <stop offset="20%" style="stop-color: #8ec07c; stop-opacity:1"/>
   <stop offset="50%" style="stop-color: #fabd2f; stop-opacity:1"/>
   <stop offset="100%" style="stop-color: #458588; stop-opacity:1"/>
  </linearGradient>
  <linearGradient id="cyberneon" x1="0%" x2="0%" y1="0%" y2="100%">
    <stop offset="0" style="stop-color:#83a598; stop-opacity:1"/>
    <stop offset="1" style="stop-color:#b16286; stop-opacity:1"/>
  </linearGradient>
  <clipPath id="_clipPath_uZrd2B08TedByywGe2cToAEYQMrjFWc6">
   <rect width="16" height="16"/>
  </clipPath>
 </defs>
 <g clip-path="url(#_clipPath_uZrd2B08TedByywGe2cToAEYQMrjFWc6)">
  <rect style="fill:currentColor" class="ColorScheme-Text" width="4.625" height="3.594" x="18.19" y="-.16" transform="matrix(1,0,0,1,0,0)"/>
  <path style="fill:currentColor" class="ColorScheme-Text" fill-rule="evenodd" d="M 7.91 1.001 C 7.819 0.994 7.712 1.016 7.595 1.079 C 4.434 2.784 2.588 5.864 2.616 7.917 C 2.656 10.903 4.948 13.348 8.365 13.265 C 8.208 14.061 7.736 14.325 7.806 14.703 C 7.833 14.853 8.052 15.11 8.349 14.948 C 11.383 13.296 13.323 10.345 13.382 8.22 C 13.464 5.316 11.255 2.562 7.618 2.747 C 7.705 2.345 7.907 1.989 8.159 1.572 C 8.317 1.313 8.183 1.024 7.91 1.001 L 7.91 1.001 Z M 8 5.846 C 9.19 5.846 10.154 6.811 10.154 8 C 10.154 9.19 9.19 10.154 8 10.154 C 6.811 10.154 5.846 9.19 5.846 8 C 5.846 6.811 6.811 5.846 8 5.846 Z"/>
 </g>
</svg>
